X: 27
T:Waves of Tory, The
M:4/4
L:1/8
Q:240
R:March
K:A
cd|"A"e2 ce "E"d2 Bd|"A"c2 A2 AGAc|"E7"B2 G2 GFGA|"A"B2 A2 A2cd|
e2 ce "E"d2 Bd|"A"c2 A2 AGAc|"E7"B2 G2 GFGA|"A"B2 A2 A2:|
|:z2|"A"A2 ce a3 g|"D"g2 f2 f4|"E"G2 Bd g3 f|"Aaug"f2 e2 "A"e4|
A2 ce a3 g|"D"g2 f2 f2 ba|"E"g2 b2 f2 g2|"A"a6:||
